X: 35595
T: Sabelina
R: barndance
M: 4/4
K: Dmajor
FA|d2 dF/A/ d2 dF/A/|d>e dc/B/ AG GE/G/|c2 cE/G/ c2 cE/G/|c>d e/d/c/B/ AF FF/A/|
d2 dF/A/ d2 dF/A/|d2 d=c B2 BE/G/|c>d e/d/c/B/ AF FA/B/|AG/F/ G/A/F/E/ D2 DF/A/|
d2 dF/A/ d2 dF/A/|d>e dc/B/ AG GE/G/|c2 cE/G/ c2 cE/G/|c>d e/d/c/B/ AF FF/A/|
d2 dF/A/ d2 dF/A/|d2 d=c B2 BE/G/|c>d e/d/c/B/ AF F/e/f/e/|dc/B/ AG/E/ D2||
cd/c/|G2 GE G2 GE|G2 G2 c/B/c/A/ F2|FD F2 FD F2|F2 B/A/G/F/ E2 EF|
E2 EF E2 E2|G/F/G/E/ D>E F/G/A/B/ A2|A2 d/c/d/A/ G2 GE|G2 GE G2 G2|
c/B/c/A/ F2 FD F2|FD F2 F2 B/A/G/F/|E2 EF E2 EF|E2 E2 G/F/G/E/ D>E|
F/G/A/B/ A2 A2 d/c/d/A/|G2 GE G2 GE|G2 G2 c/B/c/A/ F2|FD F2 FD F2|
F2 B/A/G/F/ E2 EF|E2 EF E2 E2|G/F/G/E/ D>E F/A/B/c/ d2|d4 d3||

